X: 1
T: Athol Highlanders Jig
M: 6/8
Z: Transcribed to abc by David Dunbar
S: David Dunbar <tinwhistler@itginternet.net.au> 2005-6-12
R: jig
K: D
F/G/|A3 AFD| AFD EFG| A3 AFD| EFG FED|
     A3 AFD| AFD EFG| AAA BAG| FGE D2:|
|:\
D| DFA DFA| EGB EGB| DFA DFA| EFG FED|
   DFA DFA| EGB EGB| AAA BAG| FGE D2:|
|:\
d3A AGF| d3A AGF| d3A AGF| EFG FED|
   d3A AGF| d3A ABc| d3 AAB| GFGE D2 :|
|:\
A| FDF FDF| GEG GEG| FDF FDF| EEE EEE|
   FDF FDF| GEG GAG| AAA ABG|1 FGE D2:|2\
   ABc .d z|] "go out on"x D4|]
